src/assets/linkedin.svg

<svg width="19" height="18" viewBox="0 0 19 18" fill="none" xmlns="http://www.w3.org/2000/svg">
<path d="M15.5 0C16.2956 0 17.0587 0.316071 17.6213 0.87868C18.1839 1.44129 18.5 2.20435 18.5 3V15C18.5 15.7956 18.1839 16.5587 17.6213 17.1213C17.0587 17.6839 16.2956 18 15.5 18H3.5C2.70435 18 1.94129 17.6839 1.37868 17.1213C0.816071 16.5587 0.5 15.7956 0.5 15V3C0.5 2.20435 0.816071 1.44129 1.37868 0.87868C1.94129 0.316071 2.70435 0 3.5 0H15.5ZM15.5 2H3.5C3.23478 2 2.98043 2.10536 2.79289 2.29289C2.60536 2.48043 2.5 2.73478 2.5 3V15C2.5 15.2652 2.60536 15.5196 2.79289 15.7071C2.98043 15.8946 3.23478 16 3.5 16H15.5C15.7652 16 16.0196 15.8946 16.2071 15.7071C16.3946 15.5196 16.5 15.2652 16.5 15V3C16.5 2.73478 16.3946 2.48043 16.2071 2.29289C16.0196 2.10536 15.7652 2 15.5 2ZM5.5 7C5.74493 7.00003 5.98134 7.08996 6.16437 7.25272C6.34741 7.41547 6.46434 7.63975 6.493 7.883L6.5 8V13C6.49972 13.2549 6.40212 13.5 6.22715 13.6854C6.05218 13.8707 5.81305 13.9822 5.55861 13.9972C5.30416 14.0121 5.05362 13.9293 4.85817 13.7657C4.66271 13.6021 4.5371 13.3701 4.507 13.117L4.5 13V8C4.5 7.73478 4.60536 7.48043 4.79289 7.29289C4.98043 7.10536 5.23478 7 5.5 7ZM8.5 6C8.73419 5.99996 8.96097 6.08213 9.1408 6.23216C9.32062 6.3822 9.44208 6.59059 9.484 6.821C9.68523 6.70431 9.89327 6.59979 10.107 6.508C10.774 6.223 11.773 6.066 12.675 6.349C13.148 6.499 13.623 6.779 13.975 7.256C14.29 7.681 14.46 8.198 14.494 8.779L14.5 9V13C14.4997 13.2549 14.4021 13.5 14.2272 13.6854C14.0522 13.8707 13.813 13.9822 13.5586 13.9972C13.3042 14.0121 13.0536 13.9293 12.8582 13.7657C12.6627 13.6021 12.5371 13.3701 12.507 13.117L12.5 13V9C12.5 8.67 12.42 8.516 12.368 8.445C12.2934 8.35215 12.1905 8.28615 12.075 8.257C11.727 8.147 11.226 8.205 10.893 8.347C10.393 8.561 9.935 8.897 9.623 9.208L9.5 9.34V13C9.49972 13.2549 9.40212 13.5 9.22715 13.6854C9.05218 13.8707 8.81305 13.9822 8.55861 13.9972C8.30416 14.0121 8.05362 13.9293 7.85817 13.7657C7.66271 13.6021 7.5371 13.3701 7.507 13.117L7.5 13V7C7.5 6.73478 7.60536 6.48043 7.79289 6.29289C7.98043 6.10536 8.23478 6 8.5 6ZM5.5 4C5.76522 4 6.01957 4.10536 6.20711 4.29289C6.39464 4.48043 6.5 4.73478 6.5 5C6.5 5.26522 6.39464 5.51957 6.20711 5.70711C6.01957 5.89464 5.76522 6 5.5 6C5.23478 6 4.98043 5.89464 4.79289 5.70711C4.60536 5.51957 4.5 5.26522 4.5 5C4.5 4.73478 4.60536 4.48043 4.79289 4.29289C4.98043 4.10536 5.23478 4 5.5 4Z" fill="white"/>
</svg>

<svg xmlns="http://www.w3.org/2000/svg" width="19" height="18" fill="none"><path fill="#fff" d="M15.5 0a3 3 0 0 1 3 3v12a3 3 0 0 1-3 3h-12a3 3 0 0 1-3-3V3a3 3 0 0 1 3-3zm0 2h-12a1 1 0 0 0-1 1v12a1 1 0 0 0 1 1h12a1 1 0 0 0 1-1V3a1 1 0 0 0-1-1m-10 5a1 1 0 0 1 .993.883L6.5 8v5a1 1 0 0 1-1.993.117L4.5 13V8a1 1 0 0 1 1-1m3-1a1 1 0 0 1 .984.821 6 6 0 0 1 .623-.313c.667-.285 1.666-.442 2.568-.159.473.15.948.43 1.3.907.315.425.485.942.519 1.523L14.5 9v4a1 1 0 0 1-1.993.117L12.5 13V9c0-.33-.08-.484-.132-.555a.55.55 0 0 0-.293-.188c-.348-.11-.849-.052-1.182.09-.5.214-.958.55-1.27.861L9.5 9.34V13a1 1 0 0 1-1.993.117L7.5 13V7a1 1 0 0 1 1-1m-3-2a1 1 0 1 1 0 2 1 1 0 0 1 0-2"/></svg>
